images/svg/site-logo.svg

<svg width="170" height="30" viewBox="0 0 170 30" fill="none" xmlns="http://www.w3.org/2000/svg">
<path d="M6.168 23.448C5.03733 23.448 4.024 23.256 3.128 22.872C2.232 22.4667 1.51733 21.8907 0.984 21.144C0.472 20.376 0.216 19.448 0.216 18.36C0.216 17.272 0.472 16.3653 0.984 15.64C1.51733 14.8933 2.24267 14.3387 3.16 13.976C4.09867 13.592 5.16533 13.4 6.36 13.4H10.712V12.504C10.712 11.7573 10.4773 11.1493 10.008 10.68C9.53867 10.1893 8.792 9.944 7.768 9.944C6.76533 9.944 6.01867 10.1787 5.528 10.648C5.03733 11.096 4.71733 11.6827 4.568 12.408L0.856 11.16C1.112 10.3493 1.51733 9.61333 2.072 8.952C2.648 8.26933 3.40533 7.72533 4.344 7.32C5.304 6.89333 6.46667 6.68 7.832 6.68C9.92267 6.68 11.576 7.20267 12.792 8.248C14.008 9.29333 14.616 10.808 14.616 12.792V18.712C14.616 19.352 14.9147 19.672 15.512 19.672H16.792V23H14.104C13.3147 23 12.664 22.808 12.152 22.424C11.64 22.04 11.384 21.528 11.384 20.888V20.856H10.776C10.6907 21.112 10.4987 21.4533 10.2 21.88C9.90133 22.2853 9.432 22.648 8.792 22.968C8.152 23.288 7.27733 23.448 6.168 23.448ZM6.872 20.184C8.00267 20.184 8.92 19.8747 9.624 19.256C10.3493 18.616 10.712 17.7733 10.712 16.728V16.408H6.648C5.90133 16.408 5.31467 16.568 4.888 16.888C4.46133 17.208 4.248 17.656 4.248 18.232C4.248 18.808 4.472 19.2773 4.92 19.64C5.368 20.0027 6.01867 20.184 6.872 20.184ZM25.3831 23.448C24.1244 23.448 22.9404 23.1387 21.8311 22.52C20.7431 21.88 19.8684 20.952 19.2071 19.736C18.5457 18.52 18.2151 17.048 18.2151 15.32V14.808C18.2151 13.08 18.5457 11.608 19.2071 10.392C19.8684 9.176 20.7431 8.25867 21.8311 7.64C22.9191 7 24.1031 6.68 25.3831 6.68C26.3431 6.68 27.1431 6.79733 27.7831 7.032C28.4444 7.24533 28.9777 7.52267 29.3831 7.864C29.7884 8.20533 30.0977 8.568 30.3111 8.952H30.8871V0.599998H34.9191V23H30.9511V21.08H30.3751C30.0124 21.6773 29.4471 22.2213 28.6791 22.712C27.9324 23.2027 26.8337 23.448 25.3831 23.448ZM26.5991 19.928C27.8364 19.928 28.8711 19.5333 29.7031 18.744C30.5351 17.9333 30.9511 16.76 30.9511 15.224V14.904C30.9511 13.368 30.5351 12.2053 29.7031 11.416C28.8924 10.6053 27.8577 10.2 26.5991 10.2C25.3617 10.2 24.3271 10.6053 23.4951 11.416C22.6631 12.2053 22.2471 13.368 22.2471 14.904V15.224C22.2471 16.76 22.6631 17.9333 23.4951 18.744C24.3271 19.5333 25.3617 19.928 26.5991 19.928ZM43.8729 23.448C42.7422 23.448 41.7289 23.256 40.8329 22.872C39.9369 22.4667 39.2222 21.8907 38.6889 21.144C38.1769 20.376 37.9209 19.448 37.9209 18.36C37.9209 17.272 38.1769 16.3653 38.6889 15.64C39.2222 14.8933 39.9475 14.3387 40.8649 13.976C41.8035 13.592 42.8702 13.4 44.0649 13.4H48.4169V12.504C48.4169 11.7573 48.1822 11.1493 47.7129 10.68C47.2435 10.1893 46.4969 9.944 45.4729 9.944C44.4702 9.944 43.7235 10.1787 43.2329 10.648C42.7422 11.096 42.4222 11.6827 42.2729 12.408L38.5609 11.16C38.8169 10.3493 39.2222 9.61333 39.7769 8.952C40.3529 8.26933 41.1102 7.72533 42.0489 7.32C43.0089 6.89333 44.1715 6.68 45.5369 6.68C47.6275 6.68 49.2809 7.20267 50.4969 8.248C51.7129 9.29333 52.3209 10.808 52.3209 12.792V18.712C52.3209 19.352 52.6195 19.672 53.2169 19.672H54.4969V23H51.8089C51.0195 23 50.3689 22.808 49.8569 22.424C49.3449 22.04 49.0889 21.528 49.0889 20.888V20.856H48.4809C48.3955 21.112 48.2035 21.4533 47.9049 21.88C47.6062 22.2853 47.1369 22.648 46.4969 22.968C45.8569 23.288 44.9822 23.448 43.8729 23.448ZM44.5769 20.184C45.7075 20.184 46.6249 19.8747 47.3289 19.256C48.0542 18.616 48.4169 17.7733 48.4169 16.728V16.408H44.3529C43.6062 16.408 43.0195 16.568 42.5929 16.888C42.1662 17.208 41.9529 17.656 41.9529 18.232C41.9529 18.808 42.1769 19.2773 42.6249 19.64C43.0729 20.0027 43.7235 20.184 44.5769 20.184ZM57.0004 23V7.128H60.9684V8.856H61.5444C61.8218 8.32267 62.2804 7.864 62.9204 7.48C63.5604 7.07467 64.4031 6.872 65.4484 6.872C66.5791 6.872 67.4858 7.096 68.1684 7.544C68.8511 7.97067 69.3738 8.536 69.7364 9.24H70.3124C70.6751 8.55733 71.1871 7.992 71.8484 7.544C72.5098 7.096 73.4484 6.872 74.6644 6.872C75.6458 6.872 76.5311 7.08533 77.3204 7.512C78.1311 7.91733 78.7711 8.54667 79.2404 9.4C79.7311 10.232 79.9764 11.288 79.9764 12.568V23H75.9444V12.856C75.9444 11.9813 75.7204 11.3307 75.2724 10.904C74.8244 10.456 74.1951 10.232 73.3844 10.232C72.4671 10.232 71.7524 10.5307 71.2404 11.128C70.7498 11.704 70.5044 12.536 70.5044 13.624V23H66.4724V12.856C66.4724 11.9813 66.2484 11.3307 65.8004 10.904C65.3524 10.456 64.7231 10.232 63.9124 10.232C62.9951 10.232 62.2804 10.5307 61.7684 11.128C61.2778 11.704 61.0324 12.536 61.0324 13.624V23H57.0004ZM83.8685 23V0.599998H87.9005V12.984H88.4765L93.7245 7.128H98.9725L91.6445 14.808L99.2285 23H94.0445L88.4765 16.696H87.9005V23H83.8685ZM107.75 23.448C106.171 23.448 104.774 23.1173 103.558 22.456C102.363 21.7733 101.424 20.824 100.742 19.608C100.08 18.3707 99.7498 16.92 99.7498 15.256V14.872C99.7498 13.208 100.08 11.768 100.742 10.552C101.403 9.31467 102.331 8.36533 103.526 7.704C104.72 7.02133 106.107 6.68 107.686 6.68C109.243 6.68 110.598 7.032 111.75 7.736C112.902 8.41867 113.798 9.37867 114.438 10.616C115.078 11.832 115.398 13.2507 115.398 14.872V16.248H103.846C103.888 17.336 104.294 18.2213 105.062 18.904C105.83 19.5867 106.768 19.928 107.878 19.928C109.008 19.928 109.84 19.6827 110.374 19.192C110.907 18.7013 111.312 18.1573 111.59 17.56L114.886 19.288C114.587 19.8427 114.15 20.4507 113.574 21.112C113.019 21.752 112.272 22.3067 111.334 22.776C110.395 23.224 109.2 23.448 107.75 23.448ZM103.878 13.24H111.302C111.216 12.3227 110.843 11.5867 110.182 11.032C109.542 10.4773 108.699 10.2 107.654 10.2C106.566 10.2 105.702 10.4773 105.062 11.032C104.422 11.5867 104.027 12.3227 103.878 13.24ZM120.27 29.4V25.88H128.91C129.507 25.88 129.806 25.56 129.806 24.92V20.92H129.23C129.059 21.2827 128.793 21.6453 128.43 22.008C128.067 22.3707 127.577 22.6693 126.958 22.904C126.339 23.1387 125.55 23.256 124.59 23.256C123.353 23.256 122.265 22.9787 121.326 22.424C120.409 21.848 119.694 21.0587 119.182 20.056C118.67 19.0533 118.414 17.9013 118.414 16.6V7.128H122.446V16.28C122.446 17.4747 122.734 18.3707 123.31 18.968C123.907 19.5653 124.75 19.864 125.838 19.864C127.075 19.864 128.035 19.4587 128.718 18.648C129.401 17.816 129.742 16.664 129.742 15.192V7.128H133.774V25.816C133.774 26.904 133.454 27.768 132.814 28.408C132.174 29.0693 131.321 29.4 130.254 29.4H120.27ZM145.048 23.448C143.47 23.448 142.072 23.1173 140.856 22.456C139.662 21.7733 138.723 20.824 138.04 19.608C137.379 18.3707 137.048 16.92 137.048 15.256V14.872C137.048 13.208 137.379 11.768 138.04 10.552C138.702 9.31467 139.63 8.36533 140.824 7.704C142.019 7.02133 143.406 6.68 144.984 6.68C146.542 6.68 147.896 7.032 149.048 7.736C150.2 8.41867 151.096 9.37867 151.736 10.616C152.376 11.832 152.696 13.2507 152.696 14.872V16.248H141.144C141.187 17.336 141.592 18.2213 142.36 18.904C143.128 19.5867 144.067 19.928 145.176 19.928C146.307 19.928 147.139 19.6827 147.672 19.192C148.206 18.7013 148.611 18.1573 148.888 17.56L152.184 19.288C151.886 19.8427 151.448 20.4507 150.872 21.112C150.318 21.752 149.571 22.3067 148.632 22.776C147.694 23.224 146.499 23.448 145.048 23.448ZM141.176 13.24H148.6C148.515 12.3227 148.142 11.5867 147.48 11.032C146.84 10.4773 145.998 10.2 144.952 10.2C143.864 10.2 143 10.4773 142.36 11.032C141.72 11.5867 141.326 12.3227 141.176 13.24ZM162.433 23.448C160.363 23.448 158.667 23 157.345 22.104C156.022 21.208 155.222 19.928 154.945 18.264L158.657 17.304C158.806 18.0507 159.051 18.6373 159.393 19.064C159.755 19.4907 160.193 19.8 160.705 19.992C161.238 20.1627 161.814 20.248 162.433 20.248C163.371 20.248 164.065 20.088 164.513 19.768C164.961 19.4267 165.185 19.0107 165.185 18.52C165.185 18.0293 164.971 17.656 164.545 17.4C164.118 17.1227 163.435 16.8987 162.497 16.728L161.601 16.568C160.491 16.3547 159.478 16.0667 158.561 15.704C157.643 15.32 156.907 14.7973 156.353 14.136C155.798 13.4747 155.521 12.6213 155.521 11.576C155.521 9.99733 156.097 8.792 157.249 7.96C158.401 7.10667 159.915 6.68 161.793 6.68C163.563 6.68 165.035 7.07467 166.209 7.864C167.382 8.65333 168.15 9.688 168.513 10.968L164.769 12.12C164.598 11.3093 164.246 10.7333 163.713 10.392C163.201 10.0507 162.561 9.88 161.793 9.88C161.025 9.88 160.438 10.0187 160.033 10.296C159.627 10.552 159.425 10.9147 159.425 11.384C159.425 11.896 159.638 12.28 160.065 12.536C160.491 12.7707 161.067 12.952 161.793 13.08L162.689 13.24C163.883 13.4533 164.961 13.7413 165.921 14.104C166.902 14.4453 167.67 14.9467 168.225 15.608C168.801 16.248 169.089 17.1227 169.089 18.232C169.089 19.896 168.481 21.1867 167.265 22.104C166.07 23 164.459 23.448 162.433 23.448Z" fill="white"/>
</svg>

<svg xmlns="http://www.w3.org/2000/svg" width="170" height="30" fill="none"><path fill="#fff" d="M6.168 23.448c-1.13 0-2.144-.192-3.04-.576-.896-.405-1.61-.981-2.144-1.728-.512-.768-.768-1.696-.768-2.784 0-1.088.256-1.995.768-2.72.533-.747 1.259-1.301 2.176-1.664.939-.384 2.005-.576 3.2-.576h4.352v-.896c0-.747-.235-1.355-.704-1.824-.47-.49-1.216-.736-2.24-.736-1.003 0-1.75.235-2.24.704-.49.448-.81 1.035-.96 1.76L.856 11.16a6.41 6.41 0 0 1 1.216-2.208c.576-.683 1.333-1.227 2.272-1.632.96-.427 2.123-.64 3.488-.64 2.09 0 3.744.523 4.96 1.568 1.216 1.045 1.824 2.56 1.824 4.544v5.92c0 .64.299.96.896.96h1.28V23h-2.688c-.79 0-1.44-.192-1.952-.576a1.825 1.825 0 0 1-.768-1.536v-.032h-.608c-.085.256-.277.597-.576 1.024-.299.405-.768.768-1.408 1.088-.64.32-1.515.48-2.624.48Zm.704-3.264c1.13 0 2.048-.31 2.752-.928.725-.64 1.088-1.483 1.088-2.528v-.32H6.648c-.747 0-1.333.16-1.76.48-.427.32-.64.768-.64 1.344 0 .576.224 1.045.672 1.408.448.363 1.099.544 1.952.544Zm18.511 3.264a7.179 7.179 0 0 1-3.552-.928c-1.088-.64-1.963-1.568-2.624-2.784-.661-1.216-.992-2.688-.992-4.416v-.512c0-1.728.33-3.2.992-4.416.661-1.216 1.536-2.133 2.624-2.752a6.882 6.882 0 0 1 3.552-.96c.96 0 1.76.117 2.4.352.661.213 1.195.49 1.6.832.405.341.715.704.928 1.088h.576V.6h4.032V23h-3.968v-1.92h-.576c-.363.597-.928 1.141-1.696 1.632-.747.49-1.845.736-3.296.736Zm1.216-3.52c1.237 0 2.272-.395 3.104-1.184.832-.81 1.248-1.984 1.248-3.52v-.32c0-1.536-.416-2.699-1.248-3.488-.81-.81-1.845-1.216-3.104-1.216-1.237 0-2.272.405-3.104 1.216-.832.79-1.248 1.952-1.248 3.488v.32c0 1.536.416 2.71 1.248 3.52.832.79 1.867 1.184 3.104 1.184Zm17.274 3.52c-1.13 0-2.144-.192-3.04-.576-.896-.405-1.61-.981-2.144-1.728-.512-.768-.768-1.696-.768-2.784 0-1.088.256-1.995.768-2.72.533-.747 1.258-1.301 2.176-1.664.938-.384 2.005-.576 3.2-.576h4.352v-.896c0-.747-.235-1.355-.704-1.824-.47-.49-1.216-.736-2.24-.736-1.003 0-1.75.235-2.24.704-.49.448-.81 1.035-.96 1.76L38.56 11.16a6.41 6.41 0 0 1 1.216-2.208c.576-.683 1.333-1.227 2.272-1.632.96-.427 2.123-.64 3.488-.64 2.09 0 3.744.523 4.96 1.568 1.216 1.045 1.824 2.56 1.824 4.544v5.92c0 .64.299.96.896.96h1.28V23h-2.688c-.79 0-1.44-.192-1.952-.576a1.825 1.825 0 0 1-.768-1.536v-.032h-.608c-.086.256-.278.597-.576 1.024-.299.405-.768.768-1.408 1.088-.64.32-1.515.48-2.624.48Zm.704-3.264c1.13 0 2.048-.31 2.752-.928.725-.64 1.088-1.483 1.088-2.528v-.32h-4.064c-.747 0-1.334.16-1.76.48-.427.32-.64.768-.64 1.344 0 .576.224 1.045.672 1.408.448.363 1.099.544 1.952.544ZM57 23V7.128h3.968v1.728h.576c.278-.533.736-.992 1.376-1.376.64-.405 1.483-.608 2.528-.608 1.131 0 2.038.224 2.72.672a4.28 4.28 0 0 1 1.568 1.696h.576a4.677 4.677 0 0 1 1.536-1.696c.662-.448 1.6-.672 2.816-.672.982 0 1.867.213 2.656.64.811.405 1.451 1.035 1.92 1.888.491.832.736 1.888.736 3.168V23h-4.032V12.856c0-.875-.224-1.525-.672-1.952-.448-.448-1.077-.672-1.888-.672-.917 0-1.632.299-2.144.896-.49.576-.736 1.408-.736 2.496V23h-4.032V12.856c0-.875-.224-1.525-.672-1.952-.448-.448-1.077-.672-1.888-.672-.917 0-1.632.299-2.144.896-.49.576-.736 1.408-.736 2.496V23H57Zm26.868 0V.6H87.9v12.384h.576l5.249-5.856h5.248l-7.329 7.68L99.228 23h-5.183l-5.569-6.304H87.9V23h-4.032Zm23.882.448c-1.579 0-2.976-.33-4.192-.992a7.367 7.367 0 0 1-2.816-2.848c-.662-1.237-.992-2.688-.992-4.352v-.384c0-1.664.33-3.104.992-4.32.661-1.237 1.589-2.187 2.784-2.848 1.194-.683 2.581-1.024 4.16-1.024 1.557 0 2.912.352 4.064 1.056 1.152.683 2.048 1.643 2.688 2.88.64 1.216.96 2.635.96 4.256v1.376h-11.552c.042 1.088.448 1.973 1.216 2.656s1.706 1.024 2.816 1.024c1.13 0 1.962-.245 2.496-.736a5.196 5.196 0 0 0 1.216-1.632l3.296 1.728c-.299.555-.736 1.163-1.312 1.824-.555.64-1.302 1.195-2.24 1.664-.939.448-2.134.672-3.584.672Zm-3.872-10.208h7.424c-.086-.917-.459-1.653-1.12-2.208-.64-.555-1.483-.832-2.528-.832-1.088 0-1.952.277-2.592.832-.64.555-1.035 1.29-1.184 2.208ZM120.27 29.4v-3.52h8.64c.597 0 .896-.32.896-.96v-4h-.576c-.171.363-.437.725-.8 1.088-.363.363-.853.661-1.472.896s-1.408.352-2.368.352c-1.237 0-2.325-.277-3.264-.832a5.908 5.908 0 0 1-2.144-2.368c-.512-1.003-.768-2.155-.768-3.456V7.128h4.032v9.152c0 1.195.288 2.09.864 2.688.597.597 1.44.896 2.528.896 1.237 0 2.197-.405 2.88-1.216.683-.832 1.024-1.984 1.024-3.456V7.128h4.032v18.688c0 1.088-.32 1.952-.96 2.592-.64.661-1.493.992-2.56.992h-9.984Zm24.778-5.952c-1.578 0-2.976-.33-4.192-.992a7.38 7.38 0 0 1-2.816-2.848c-.661-1.237-.992-2.688-.992-4.352v-.384c0-1.664.331-3.104.992-4.32.662-1.237 1.59-2.187 2.784-2.848 1.195-.683 2.582-1.024 4.16-1.024 1.558 0 2.912.352 4.064 1.056 1.152.683 2.048 1.643 2.688 2.88.64 1.216.96 2.635.96 4.256v1.376h-11.552c.043 1.088.448 1.973 1.216 2.656s1.707 1.024 2.816 1.024c1.131 0 1.963-.245 2.496-.736a5.165 5.165 0 0 0 1.216-1.632l3.296 1.728c-.298.555-.736 1.163-1.312 1.824-.554.64-1.301 1.195-2.24 1.664-.938.448-2.133.672-3.584.672Zm-3.872-10.208h7.424c-.085-.917-.458-1.653-1.12-2.208-.64-.555-1.482-.832-2.528-.832-1.088 0-1.952.277-2.592.832-.64.555-1.034 1.29-1.184 2.208Zm21.257 10.208c-2.07 0-3.766-.448-5.088-1.344-1.323-.896-2.123-2.176-2.4-3.84l3.712-.96c.149.747.394 1.333.736 1.76.362.427.8.736 1.312.928.533.17 1.109.256 1.728.256.938 0 1.632-.16 2.08-.48.448-.341.672-.757.672-1.248 0-.49-.214-.864-.64-1.12-.427-.277-1.11-.501-2.048-.672l-.896-.16a16.963 16.963 0 0 1-3.04-.864c-.918-.384-1.654-.907-2.208-1.568-.555-.661-.832-1.515-.832-2.56 0-1.579.576-2.784 1.728-3.616 1.152-.853 2.666-1.28 4.544-1.28 1.77 0 3.242.395 4.416 1.184 1.173.79 1.941 1.824 2.304 3.104l-3.744 1.152c-.171-.81-.523-1.387-1.056-1.728-.512-.341-1.152-.512-1.92-.512s-1.355.139-1.76.416c-.406.256-.608.619-.608 1.088 0 .512.213.896.64 1.152.426.235 1.002.416 1.728.544l.896.16c1.194.213 2.272.501 3.232.864.981.341 1.749.843 2.304 1.504.576.64.864 1.515.864 2.624 0 1.664-.608 2.955-1.824 3.872-1.195.896-2.806 1.344-4.832 1.344Z"/></svg>
